images/logoa.svg

<svg width="106" height="61" fill="none" xmlns="http://www.w3.org/2000/svg"><path fill-rule="evenodd" clip-rule="evenodd" d="m38 7.7131 7.0078 6.6342L32 14.3396v32.1873h34V34.2202l7 6.6267V7.7131H38Zm27.6924 25.7284L45.8226 14.6311h19.8698v18.8104Zm-6.1693 8.3772h-22.143V20.1711h1.5652v20.1817h20.5778v1.4659Zm-16.9142 8.9936-.8179 1.6845-.8179-1.6845h-.686l1.1939 2.246v1.3086h.6201v-1.3086l1.1914-2.246h-.6836Zm1.0278 3.5546.2881-.8276h1.377l.2905.8276h.6445l-1.3452-3.5546h-.5542l-1.3428 3.5546h.6421Zm.9766-2.8002.5151 1.4746h-1.0303l.5152-1.4746Zm3.2568 1.3891a.8077.8077 0 0 0-.1343.4517c0 .2995.105.5428.315.73.2116.1855.4931.2783.8447.2783s.6543-.0952.9082-.2857l.2002.2368h.6885l-.5225-.6176c.2051-.28.3076-.6389.3076-1.0767h-.5151c0 .2393-.0496.4566-.1489.6519l-.6861-.8106.2417-.1758c.1709-.1237.2938-.2474.3687-.3711a.7847.7847 0 0 0 .1123-.4101c0-.2246-.083-.4126-.249-.564-.1644-.153-.376-.2295-.6348-.2295-.2865 0-.5143.0814-.6836.2442-.1693.1611-.2539.3808-.2539.6591 0 .114.0269.232.0806.3541.0553.122.1522.2701.2905.4443-.2637.1888-.4403.3524-.5298.4907Zm1.604.7861c-.1741.1335-.3613.2002-.5615.2002-.1774 0-.319-.0512-.4248-.1538-.1058-.1025-.1587-.236-.1587-.4004 0-.1904.0977-.3597.293-.5078l.0757-.0537.7763.9155Zm-.6372-1.5747c-.1676-.2067-.2515-.3784-.2515-.5151 0-.1188.0342-.2173.1026-.2954.0683-.0781.1603-.1172.2759-.1172.1074 0 .1961.0334.2661.1001.07.0651.105.144.105.2368 0 .14-.0505.2547-.1514.3443l-.0757.061-.271.1855Zm5.7861 1.9312c.2442-.2132.3842-.5095.42-.8887h-.6153c-.0325.2539-.1098.4354-.2319.5445-.1221.109-.3044.1635-.5469.1635-.2653 0-.4671-.1009-.6054-.3027-.1368-.2018-.2051-.4948-.2051-.8789v-.315c.0032-.3792.0765-.6665.2197-.8618.1449-.1969.3516-.2954.6201-.2954.2311 0 .4061.057.5249.1709.1205.1123.1953.2962.2246.5518h.6153c-.0391-.389-.1783-.6901-.4175-.9033-.2393-.2133-.555-.3199-.9473-.3199-.2913 0-.5485.0692-.7715.2075-.2213.1384-.3914.3353-.5102.5909-.1188.2555-.1782.5509-.1782.8862v.332c.0048.3272.0659.6145.1831.8618.1172.2474.2832.4387.498.5738.2165.1334.4663.2002.7495.2002.4053 0 .73-.1058.9741-.3174Zm3.6304-.4981c.1205-.2636.1807-.5696.1807-.9179v-.1978c-.0016-.3467-.0635-.6502-.1856-.9106-.122-.2621-.2954-.4623-.52-.6006-.223-.14-.4793-.21-.769-.21s-.5469.0708-.7715.2124c-.223.14-.3963.3426-.52.6079-.1221.2653-.1831.5713-.1831.918v.2002c.0016.3402.0634.6405.1855.9009.1237.2604.2979.4614.5225.603.2262.14.4834.21.7715.21.2913 0 .5485-.07.7714-.21.2246-.1416.3972-.3434.5176-.6055Zm-.6616-2.0092c.1497.2099.2246.5118.2246.9057v.1856c0 .4004-.0741.7047-.2222.9131-.1464.2083-.3564.3125-.6298.3125-.2702 0-.4818-.1067-.6348-.3199-.1514-.2132-.2271-.5151-.2271-.9057v-.2051c.0033-.3825.0798-.6779.2295-.8862.1514-.21.3605-.315.6275-.315.2734 0 .4842.105.6323.315Z" fill="#AFB1B8"/></svg>

<svg width="106" height="61" viewBox="0 0 106 61" fill="none" xmlns="http://www.w3.org/2000/svg">
<path fill-rule="evenodd" clip-rule="evenodd" d="M38 7.71313L45.0078 14.3473L32 14.3396V46.5269H66V34.2202L73 40.8469V7.71313H38ZM65.6924 33.4415L45.8226 14.6311H65.6924V33.4415ZM59.5231 41.8187H37.3801V20.1711H38.9453V40.3528H59.5231V41.8187ZM42.6089 50.8123L41.791 52.4968L40.9731 50.8123H40.2871L41.481 53.0583V54.3669H42.1011V53.0583L43.2925 50.8123H42.6089ZM43.6367 54.3669L43.9248 53.5393H45.3018L45.5923 54.3669H46.2368L44.8916 50.8123H44.3374L42.9946 54.3669H43.6367ZM44.6133 51.5667L45.1284 53.0413H44.0981L44.6133 51.5667ZM47.8701 52.9558C47.7806 53.0925 47.7358 53.2431 47.7358 53.4075C47.7358 53.707 47.8408 53.9503 48.0508 54.1375C48.2624 54.323 48.5439 54.4158 48.8955 54.4158C49.2471 54.4158 49.5498 54.3206 49.8037 54.1301L50.0039 54.3669H50.6924L50.1699 53.7493C50.375 53.4693 50.4775 53.1104 50.4775 52.6726H49.9624C49.9624 52.9119 49.9128 53.1292 49.8135 53.3245L49.1274 52.5139L49.3691 52.3381C49.54 52.2144 49.6629 52.0907 49.7378 51.967C49.8127 51.8417 49.8501 51.705 49.8501 51.5569C49.8501 51.3323 49.7671 51.1443 49.6011 50.9929C49.4367 50.8399 49.2251 50.7634 48.9663 50.7634C48.6798 50.7634 48.452 50.8448 48.2827 51.0076C48.1134 51.1687 48.0288 51.3884 48.0288 51.6667C48.0288 51.7807 48.0557 51.8987 48.1094 52.0208C48.1647 52.1428 48.2616 52.2909 48.3999 52.4651C48.1362 52.6539 47.9596 52.8175 47.8701 52.9558ZM49.4741 53.7419C49.3 53.8754 49.1128 53.9421 48.9126 53.9421C48.7352 53.9421 48.5936 53.8909 48.4878 53.7883C48.382 53.6858 48.3291 53.5523 48.3291 53.3879C48.3291 53.1975 48.4268 53.0282 48.6221 52.8801L48.6978 52.8264L49.4741 53.7419ZM48.8369 52.1672C48.6693 51.9605 48.5854 51.7888 48.5854 51.6521C48.5854 51.5333 48.6196 51.4348 48.688 51.3567C48.7563 51.2786 48.8483 51.2395 48.9639 51.2395C49.0713 51.2395 49.16 51.2729 49.23 51.3396C49.3 51.4047 49.335 51.4836 49.335 51.5764C49.335 51.7164 49.2845 51.8311 49.1836 51.9207L49.1079 51.9817L48.8369 52.1672ZM54.623 54.0984C54.8672 53.8852 55.0072 53.5889 55.043 53.2097H54.4277C54.3952 53.4636 54.3179 53.6451 54.1958 53.7542C54.0737 53.8632 53.8914 53.9177 53.6489 53.9177C53.3836 53.9177 53.1818 53.8168 53.0435 53.615C52.9067 53.4132 52.8384 53.1202 52.8384 52.7361V52.4211C52.8416 52.0419 52.9149 51.7546 53.0581 51.5593C53.203 51.3624 53.4097 51.2639 53.6782 51.2639C53.9093 51.2639 54.0843 51.3209 54.2031 51.4348C54.3236 51.5471 54.3984 51.731 54.4277 51.9866H55.043C55.0039 51.5976 54.8647 51.2965 54.6255 51.0833C54.3862 50.87 54.0705 50.7634 53.6782 50.7634C53.3869 50.7634 53.1297 50.8326 52.9067 50.9709C52.6854 51.1093 52.5153 51.3062 52.3965 51.5618C52.2777 51.8173 52.2183 52.1127 52.2183 52.448V52.78C52.2231 53.1072 52.2842 53.3945 52.4014 53.6418C52.5186 53.8892 52.6846 54.0805 52.8994 54.2156C53.1159 54.349 53.3657 54.4158 53.6489 54.4158C54.0542 54.4158 54.3789 54.31 54.623 54.0984ZM58.2534 53.6003C58.3739 53.3367 58.4341 53.0307 58.4341 52.6824V52.4846C58.4325 52.1379 58.3706 51.8344 58.2485 51.574C58.1265 51.3119 57.9531 51.1117 57.7285 50.9734C57.5055 50.8334 57.2492 50.7634 56.9595 50.7634C56.6698 50.7634 56.4126 50.8342 56.188 50.9758C55.965 51.1158 55.7917 51.3184 55.668 51.5837C55.5459 51.849 55.4849 52.155 55.4849 52.5017V52.7019C55.4865 53.0421 55.5483 53.3424 55.6704 53.6028C55.7941 53.8632 55.9683 54.0642 56.1929 54.2058C56.4191 54.3458 56.6763 54.4158 56.9644 54.4158C57.2557 54.4158 57.5129 54.3458 57.7358 54.2058C57.9604 54.0642 58.133 53.8624 58.2534 53.6003ZM57.5918 51.5911C57.7415 51.801 57.8164 52.1029 57.8164 52.4968V52.6824C57.8164 53.0828 57.7423 53.3871 57.5942 53.5955C57.4478 53.8038 57.2378 53.908 56.9644 53.908C56.6942 53.908 56.4826 53.8013 56.3296 53.5881C56.1782 53.3749 56.1025 53.073 56.1025 52.6824V52.4773C56.1058 52.0948 56.1823 51.7994 56.332 51.5911C56.4834 51.3811 56.6925 51.2761 56.9595 51.2761C57.2329 51.2761 57.4437 51.3811 57.5918 51.5911Z" fill="#AFB1B8"/>
</svg>
